src/assets/img/new-design/dashboard/prev-ic.svg

<svg width="52" height="52" viewBox="0 0 52 52" fill="none" xmlns="http://www.w3.org/2000/svg">
<g filter="url(#filter0_i_99_512)">
<circle cx="25.5565" cy="25.5565" r="25.5565" fill="white"/>
</g>
<g filter="url(#filter1_i_99_512)">
<path d="M27.1167 31.3852C27.1235 31.3566 27.1487 31.3609 27.1696 31.3562C28.6455 31.0351 29.1783 29.476 28.1953 28.3649C27.1317 27.1629 26.0735 25.9563 25.0094 24.7548C24.9414 24.6781 24.9477 24.6378 25.0118 24.5648C26.0783 23.3596 27.141 22.1506 28.206 20.944C28.9972 20.0472 28.7985 18.7709 27.7743 18.1821C27.004 17.7393 26.0118 17.9008 25.4091 18.5818C23.9681 20.2097 22.5296 21.8403 21.0969 23.4752C20.466 24.1951 20.4675 25.1298 21.0988 25.8496C22.532 27.484 23.972 29.1128 25.4105 30.743C25.6835 31.0519 26.0249 31.2555 26.4392 31.3426C26.4741 31.3501 26.5242 31.3384 26.5446 31.3852C26.7349 31.3852 26.9258 31.3852 27.1167 31.3852Z" fill="#FB5F5F"/>
</g>
<defs>
<filter id="filter0_i_99_512" x="0" y="0" width="51.113" height="55.113" filterUnits="userSpaceOnUse" color-interpolation-filters="sRGB">
<feFlood flood-opacity="0" result="BackgroundImageFix"/>
<feBlend mode="normal" in="SourceGraphic" in2="BackgroundImageFix" result="shape"/>
<feColorMatrix in="SourceAlpha" type="matrix" values="0 0 0 0 0 0 0 0 0 0 0 0 0 0 0 0 0 0 127 0" result="hardAlpha"/>
<feOffset dy="4"/>
<feGaussianBlur stdDeviation="2"/>
<feComposite in2="hardAlpha" operator="arithmetic" k2="-1" k3="1"/>
<feColorMatrix type="matrix" values="0 0 0 0 0 0 0 0 0 0 0 0 0 0 0 0 0 0 0.15 0"/>
<feBlend mode="normal" in2="shape" result="effect1_innerShadow_99_512"/>
</filter>
<filter id="filter1_i_99_512" x="20.6245" y="17.9344" width="8.0705" height="14.4508" filterUnits="userSpaceOnUse" color-interpolation-filters="sRGB">
<feFlood flood-opacity="0" result="BackgroundImageFix"/>
<feBlend mode="normal" in="SourceGraphic" in2="BackgroundImageFix" result="shape"/>
<feColorMatrix in="SourceAlpha" type="matrix" values="0 0 0 0 0 0 0 0 0 0 0 0 0 0 0 0 0 0 127 0" result="hardAlpha"/>
<feOffset dy="1"/>
<feGaussianBlur stdDeviation="0.5"/>
<feComposite in2="hardAlpha" operator="arithmetic" k2="-1" k3="1"/>
<feColorMatrix type="matrix" values="0 0 0 0 0 0 0 0 0 0 0 0 0 0 0 0 0 0 0.35 0"/>
<feBlend mode="normal" in2="shape" result="effect1_innerShadow_99_512"/>
</filter>
</defs>
</svg>

<?xml version="1.0" encoding="utf-8"?>
<!-- Generator: Adobe Illustrator 16.0.0, SVG Export Plug-In . SVG Version: 6.00 Build 0)  -->
<!DOCTYPE svg PUBLIC "-//W3C//DTD SVG 1.1//EN" "http://www.w3.org/Graphics/SVG/1.1/DTD/svg11.dtd">
<svg version="1.1" id="Layer_1" xmlns="http://www.w3.org/2000/svg" xmlns:xlink="http://www.w3.org/1999/xlink" x="0px" y="0px"
	 width="52px" height="52px" viewBox="0 0 52 52" enable-background="new 0 0 52 52" xml:space="preserve">
<g>
	<circle fill="#FFFFFF" cx="25.557" cy="25.557" r="25.557"/>
</g>
<g>
	<path fill="#778899" d="M27.117,31.385c0.006-0.028,0.031-0.023,0.053-0.028c1.476-0.321,2.008-1.88,1.025-2.991
		c-1.063-1.202-2.122-2.409-3.186-3.61c-0.068-0.077-0.062-0.117,0.002-0.19c1.067-1.206,2.129-2.415,3.194-3.621
		c0.791-0.896,0.593-2.173-0.432-2.762c-0.771-0.443-1.763-0.281-2.365,0.4c-1.441,1.628-2.879,3.258-4.312,4.893
		c-0.631,0.72-0.63,1.655,0.002,2.375c1.433,1.635,2.873,3.264,4.312,4.894c0.273,0.309,0.614,0.513,1.028,0.6
		c0.035,0.007,0.085-0.005,0.106,0.042C26.734,31.385,26.926,31.385,27.117,31.385z"/>
</g>
<div  xmlns="" style="display: none" id="divScriptsUsed"></div>
<script  src="moz-extension://b8897ea9-e640-46f6-8e88-ab53dcdd5f8f/js/wrs_env.js" xmlns="" id="globalVarsDetection"></script>
</svg>
